X:1
T:Title
%%score { ( 1 3 ) | ( 2 4 ) }
L:1/8
M:4/4
K:C
V:1 treble nm="Grand Piano"
V:3 treble 
V:2 bass 
V:4 bass 
V:1
 z4 z2[Q:1/4=100] [EG]2 | [Ec]>[EB] [Ec]>[Ed] [Ee]>[Ed] [Ec]>[EB] | A6 z2 | B>_B =B>c e>d B>A | %4
 G6 z2 | [Ec]>[EB] [Ec]>[Ed] [Ee]>[Ed] [Ec]>[EB] | A6 z2 | G>^F G>^G A>G A>B |[M:3/4] [Ec]6 | %9
[M:1/4] [EG]2 |[M:4/4] [Ec]4[K:bass][K:treble] z4 | z2 C2 [CAc]2 [GB]>A | %12
 G>^F G>A =F>E [DF]>[B,G] | [CE]6 z2 | [Ec]4[K:bass][K:treble] z4 |[M:9/8] .[FA]6 z3 | %16
[M:4/4] G>^F G>^G A>G A>B |[M:3/4] [Ec]6 |] %18
V:2
 z4 z2 [C,C]2 | [C,G,]>[C,G,] [C,G,]>[C,G,] [C,G,]>[C,G,] [C,C]>[C,C] | %2
 [F,CF]2 [F,C]2 [F,C]2[K:treble] [F,CF]2 | %3
 [G,F]>[G,F] [G,DF]>[G,CF] [G,B,F]>[G,B,F] [G,DF]>[G,B,F] | [C,C]2 [C,C]2 [C,C]2 [C,C]2 | %5
 [C,G,]>[C,G,] [C,G,]>[C,G,] [C,G,]>[C,G,] [C,C]>[C,C] | [F,CF]2 [F,C]2 [F,C]2[K:treble] [F,CF]2 | %7
 [G,CE]>[G,CE] [G,CE]>[G,CE] [G,B,F]>[G,B,F] [G,DF]>[G,DF] |[M:3/4][K:bass] [C,C]6 | %9
[M:1/4] [C,C]2 |[M:4/4] [C,G,]2 z2 [C,C]2 [C,C]2 | [F,C]2 F,2 F,2 z z/[K:treble] F/ | %12
 E>_E =E>E D>^C[K:bass] [G,,G,]2 | [C,G,]2 C,2 C,2 C,2 | [C,G,]2 z2 [C,C]2 [C,C]2 | %15
[M:9/8] [F,C]2 F,- F, F,2- F, z z | %16
[M:4/4][K:treble] [G,CE]>[G,CE] [G,CE]>[G,CE] [G,B,F]>[G,B,F] [G,DF]>[G,DF] | %17
[M:3/4][K:bass] [C,C]6 |] %18
V:3
 x8 | x8 | z2 F2 F2 A2 | x8 | E2 E2 E2 [EG]2 | x8 | z2 F2 .F2 A2 | x8 |[M:3/4] x6 |[M:1/4] x2 | %10
[M:4/4] z2[K:bass] [C,G,]2[K:treble] [Ge]2 [Fd]>[Ec] | [FA]4 z4 | x8 | z2 G,2 G,2 [CEG]2 | %14
 z2[K:bass] [C,G,]2[K:treble] [Ge]2 [Fd]>[Ec] |[M:9/8] z2 C- C [CAc]2- [CAc] z z |[M:4/4] x8 | %17
[M:3/4] x6 |] %18
V:4
 x8 | x8 | x6[K:treble] x2 | x8 | x8 | x8 | x6[K:treble] x2 | x8 |[M:3/4][K:bass] x6 |[M:1/4] x2 | %10
[M:4/4] x8 | z4 z2 [F,C]2[K:treble] | [G,C]2 [G,C]2 [G,B,]2[K:bass] z2 | x8 | x8 |[M:9/8] x9 | %16
[M:4/4][K:treble] x8 |[M:3/4][K:bass] x6 |] %18

